X:586
T:Wilder Reiter
T:(The wild horseman) Op. 68 no. 8
C:Robert Schumann
O:Germany
B:Schumann: "Album for the young" no. 8
Z:Transcribed by Frank Nordberg - http://www.musicaviva.com
F:http://abc.musicaviva.com/tunes/schumann-robert/schm068-08/schm068-08-pno2.abc
V:1 Program 1 0 %Piano
V:2 Program 1 0 bass %Piano
M:6/8
L:1/8
K:Am
V:1
E|AEA cAc|ecf ecA|B^Gc BGE|AEc B z E|
V:2
z|[A,C] z z [A,CE] z z |[A,2C2E2][A,DF] [A,CE] z z |\
[E,2^G,2B,2][E,A,C] [E,G,B,] z z |[A,C] z [A,C] [E,^G,B,] z z |
%
V:1
AEA cAc|ecf ecA|B^Gc BGE|AE^G A z:|
V:2
[A,C] z z [A,CE] z z |[A,2C2E2][A,DF] [A,CE] z z |\
[E,2^G,2B,2][E,A,C] [E,G,B,] z z |[A,C] z [E,B,] [A,C] z :|
%
V:1
z|[CFA] z z [CFA] z z|[F2A2][FA] [FA]  z z|[E2G2c2][EGc] [EGc] z z|[FAc]AF [EG] z z|
V:2
C,|F,C,F, A,F,A,|CA,D CA,F,|G,E,A, G,E,C,|F,C,A, [C,G,] z C,|
%
V:1
[CFA] z z [CFA] z z|[F2A2][FA] [FA]  z z|[E2G2c2][EGc] [EGc] z z|[CFA] z [CG] F z||
V:2
F,C,F, A,F,A,|CA,D CA,F,|G,E,A, G,E,C,|F,C,E, F, z||
%
V:1
E|AEA cAc|ecf ecA|B^Gc BGE|AEc B z E|
V:2
z|[A,C] z z [A,CE] z z |[A,2C2E2][A,DF] [A,CE] z z |\
[E,2^G,2B,2][E,A,C] [E,G,B,] z z |[A,C] z [A,C] [E,^G,B,] z z |
%
V:1
AEA cAc|ecf ecA|B^Gc BGE|AE^G A z|]
V:2
[A,C] z z [A,CE] z z |[A,2C2E2][A,DF] [A,CE] z z |\
[E,2^G,2B,2][E,A,C] [E,G,B,] z z |[A,C] z [E,B,] [A,C] z |]

W:
W:
W:  From Musica Viva - http://www.musicaviva.com
W:  the Internet center for free sheet music downloads.

